;FLAVOR:Marlin
;TIME:6054
;Filament used: 4.87257m
;Layer height: 0.3
;MINX:22.604
;MINY:16.406
;MINZ:0.3
;MAXX:196.355
;MAXY:176.453
;MAXZ:9.9
;Generated with Cura_SteamEngine 4.4.1
M140 S60
M105
M190 S60
M104 S200
M105
M109 S200
M82 ;absolute extrusion mode
M201 X500.00 Y500.00 Z100.00 E5000.00 ;Setup machine max acceleration
M203 X500.00 Y500.00 Z10.00 E50.00 ;Setup machine max feedrate
M204 P500.00 R1000.00 T500.00 ;Setup Print/Retract/Travel acceleration
M205 X8.00 Y8.00 Z0.40 E5.00 ;Setup Jerk
M220 S100 ;Reset Feedrate
M221 S100 ;Reset Flowrate

G28 ;Home

G92 E0 ;Reset Extruder
G1 Z2.0 F3000 ;Move Z Axis up
G1 X10.1 Y20 Z0.28 F5000.0 ;Move to start position
G1 X10.1 Y200.0 Z0.28 F1500.0 E15 ;Draw the first line
G1 X10.4 Y200.0 Z0.28 F5000.0 ;Move to side a little
G1 X10.4 Y20 Z0.28 F1500.0 E30 ;Draw the second line
G92 E0 ;Reset Extruder
G1 Z2.0 F3000 ;Move Z Axis up

G92 E0
G92 E0
G1 F1500 E-6.5
;LAYER_COUNT:33
;LAYER:0
M107
;MESH:Visera plana con ventilacion (2).stl
G0 F6000 X45.5 Y69.877 Z0.3
;TYPE:WALL-INNER
G1 F1500 E0
G1 F1200 X46.069 Y69.612 E0.03132
G1 X46.583 Y69.252 E0.06262
G1 X47.028 Y68.807 E0.09402
G1 X47.388 Y68.293 E0.12533
G1 X47.653 Y67.724 E0.15664
G1 X47.815 Y67.118 E0.18794
G1 X47.871 Y66.492 E0.21929
G1 X47.815 Y65.866 E0.25065
G1 X47.653 Y65.26 E0.28195
G1 X47.388 Y64.691 E0.31326
G1 X47.028 Y64.177 E0.34457
G1 X46.583 Y63.732 E0.37597
G1 X46.069 Y63.372 E0.40727
G1 X45.5 Y63.107 E0.43859
G1 X44.894 Y62.945 E0.46988
G1 X44.268 Y62.889 E0.50124
G1 X43.642 Y62.945 E0.5326
G1 X43.036 Y63.107 E0.56389
G1 X42.467 Y63.372 E0.59521
G1 X41.953 Y63.732 E0.62651
G1 X41.508 Y64.177 E0.65791
G1 X41.148 Y64.691 E0.68922
G1 X40.883 Y65.26 E0.72053
G1 X40.721 Y65.866 E0.75183
G1 X40.665 Y66.492 E0.78318
G1 X40.721 Y67.118 E0.81454
G1 X40.883 Y67.724 E0.84584
G1 X41.148 Y68.293 E0.87715
G1 X41.508 Y68.807 E0.90846
G1 X41.953 Y69.252 E0.93986
G1 X42.467 Y69.612 E0.97116
G1 X43.036 Y69.877 E1.00248
G1 X43.642 Y70.039 E1.03377
G1 X44.268 Y70.095 E1.06513
G1 X44.894 Y70.039 E1.09649
G1 X45.5 Y69.877 E1.12778
G0 F6000 X45.363 Y69.5
;TYPE:WALL-OUTER
G1 F1200 X45.868 Y69.264 E1.15559
G1 X46.325 Y68.944 E1.18342
G1 X46.72 Y68.549 E1.21129
G1 X47.04 Y68.092 E1.23913
G1 X47.276 Y67.587 E1.26694
G1 X47.42 Y67.048 E1.29477
G1 X47.469 Y66.492 E1.32262
G1 X47.42 Y65.936 E1.35046
G1 X47.276 Y65.397 E1.3783
G1 X47.04 Y64.892 E1.40611
G1 X46.72 Y64.435 E1.43394
G1 X46.325 Y64.04 E1.46181
G1 X45.868 Y63.72 E1.48964
G1 X45.363 Y63.484 E1.51745
G1 X44.824 Y63.34 E1.54529
G1 X44.268 Y63.291 E1.57314
G1 X43.712 Y63.34 E1.60098
G1 X43.173 Y63.484 E1.62882
G1 X42.668 Y63.72 E1.65663
G1 X42.211 Y64.04 E1.68446
G1 X41.816 Y64.435 E1.71233
G1 X41.496 Y64.892 E1.74016
G1 X41.26 Y65.397 E1.76797
G1 X41.116 Y65.936 E1.79581
G1 X41.067 Y66.492 E1.82365
G1 X41.116 Y67.048 E1.8515
G1 X41.26 Y67.587 E1.87933
G1 X41.496 Y68.092 E1.90714
G1 X41.816 Y68.549 E1.93498
G1 X42.211 Y68.944 E1.96285
G1 X42.668 Y69.264 E1.99068
G1 X43.173 Y69.5 E2.01849
G1 X43.712 Y69.644 E2.04632
G1 X44.268 Y69.693 E2.07417
G1 X44.824 Y69.644 E2.10202
G1 X45.363 Y69.5 E2.12985
G0 F6000 X45.513 Y69.913
G1 F1500 E-4.37015
G0 F6000 X46.295 Y69.278
G0 X47.833 Y67.79
G0 X46.459 Y67.294
G0 X86.719 Y44.379
G0 X86.219 Y45.751
G0 X88.144 Y45.734
;TYPE:WALL-INNER
G1 F1500 E2.12985
G1 F1200 X88.751 Y45.571 E2.16121
G1 X89.319 Y45.306 E2.19248
G1 X89.833 Y44.946 E2.22378
G1 X90.278 Y44.502 E2.25515
G1 X90.638 Y43.987 E2.28649
G1 X90.903 Y43.418 E2.31781
G1 X91.065 Y42.812 E2.3491
G1 X91.121 Y42.186 E2.38046
G1 X91.065 Y41.56 E2.41182
G1 X90.903 Y40.954 E2.44311
G1 X90.638 Y40.385 E2.47443
G1 X90.278 Y39.871 E2.50573
G1 X89.833 Y39.426 E2.53713
G1 X89.319 Y39.066 E2.56844
G1 X88.75 Y38.801 E2.59975
G1 X88.144 Y38.639 E2.63105
G1 X87.518 Y38.583 E2.66241
G1 X86.892 Y38.639 E2.69376
G1 X86.286 Y38.801 E2.72506
G1 X85.717 Y39.066 E2.75637
G1 X85.203 Y39.426 E2.78768
G1 X84.758 Y39.871 E2.81908
G1 X84.398 Y40.385 E2.85038
G1 X84.133 Y40.954 E2.8817
G1 X83.971 Y41.56 E2.913
G1 X83.915 Y42.186 E2.94435
G1 X83.971 Y42.812 E2.97571
G1 X84.133 Y43.418 E3.007
G1 X84.398 Y43.987 E3.03832
G1 X84.758 Y44.502 E3.06967
G1 X85.203 Y44.946 E3.10103
G1 X85.717 Y45.306 E3.13234
G1 X86.285 Y45.571 E3.16361
G1 X86.892 Y45.734 E3.19496
G1 X87.518 Y45.788 E3.22631
G1 X88.144 Y45.734 E3.25766
G0 F6000 X88.074 Y45.339
;TYPE:WALL-OUTER
G1 F1200 X88.613 Y45.194 E3.2855
G1 X89.118 Y44.958 E3.31331
G1 X89.575 Y44.638 E3.34115
G1 X89.97 Y44.244 E3.36898
G1 X90.29 Y43.786 E3.39686
G1 X90.526 Y43.281 E3.42467
G1 X90.67 Y42.742 E3.4525
G1 X90.719 Y42.186 E3.48035
G1 X90.67 Y41.63 E3.50819
G1 X90.526 Y41.091 E3.53603
G1 X90.29 Y40.586 E3.56384
G1 X89.97 Y40.129 E3.59167
G1 X89.575 Y39.734 E3.61954
G1 X89.118 Y39.414 E3.64737
G1 X88.613 Y39.178 E3.67518
G1 X88.074 Y39.034 E3.70302
G1 X87.518 Y38.985 E3.73086
G1 X86.962 Y39.034 E3.75871
G1 X86.423 Y39.178 E3.78654
G1 X85.918 Y39.414 E3.81435
G1 X85.461 Y39.734 E3.84219
G1 X85.066 Y40.129 E3.87006
G1 X84.746 Y40.586 E3.89789
G1 X84.51 Y41.091 E3.9257
G1 X84.366 Y41.63 E3.95353
G1 X84.317 Y42.186 E3.98138
G1 X84.366 Y42.742 E4.00923
G1 X84.51 Y43.281 E4.03706
G1 X84.746 Y43.786 E4.06487
G1 X85.066 Y44.244 E4.09275
G1 X85.461 Y44.638 E4.12058
G1 X85.918 Y44.958 E4.14841
G1 X86.423 Y45.194 E4.17622
G1 X86.962 Y45.339 E4.20407
G1 X87.518 Y45.387 E4.23191
G1 X88.074 Y45.339 E4.25975
G0 F6000 X88.15 Y45.772
G1 F1500 E-2.24025
G0 F6000 X89.415 Y45.472
G0 X88.68 Y44.209
G0 X130.289 Y44.206
G0 X129.559 Y45.472
G0 X130.83 Y45.734
;TYPE:WALL-INNER
G1 F1500 E4.25975
G1 F1200 X131.456 Y45.788 E4.2911
G1 X132.081 Y45.734 E4.3224
G1 X132.689 Y45.571 E4.3538
G1 X133.257 Y45.306 E4.38507
G1 X133.771 Y44.946 E4.41638
G1 X134.216 Y44.502 E4.44774
G1 X134.576 Y43.987 E4.47909
G1 X134.841 Y43.418 E4.51041
G1 X135.003 Y42.812 E4.5417
G1 X135.059 Y42.186 E4.57306
G1 X135.003 Y41.56 E4.60441
G1 X134.841 Y40.954 E4.63571
G1 X134.576 Y40.385 E4.66702
G1 X134.216 Y39.871 E4.69833
G1 X133.771 Y39.426 E4.72973
G1 X133.257 Y39.066 E4.76104
G1 X132.688 Y38.801 E4.79235
G1 X132.081 Y38.639 E4.8237
G1 X131.456 Y38.583 E4.855
G1 X130.83 Y38.639 E4.88636
G1 X130.223 Y38.801 E4.9177
G1 X129.655 Y39.066 E4.94897
G1 X129.14 Y39.426 E4.98032
G1 X128.695 Y39.871 E5.01172
G1 X128.335 Y40.385 E5.04302
G1 X128.07 Y40.954 E5.07434
G1 X127.907 Y41.561 E5.1057
G1 X127.854 Y42.186 E5.13699
G1 X127.907 Y42.811 E5.16828
G1 X128.07 Y43.418 E5.19964
G1 X128.335 Y43.987 E5.23095
G1 X128.695 Y44.502 E5.2623
G1 X129.14 Y44.946 E5.29366
G1 X129.655 Y45.306 E5.32501
G1 X130.222 Y45.571 E5.35624
G1 X130.83 Y45.734 E5.38764
G0 F6000 X130.9 Y45.339
;TYPE:WALL-OUTER
G1 F1200 X131.456 Y45.387 E5.41548
G1 X132.011 Y45.339 E5.44328
G1 X132.551 Y45.194 E5.47117
G1 X133.056 Y44.958 E5.49898
G1 X133.513 Y44.638 E5.52682
G1 X133.908 Y44.244 E5.55465
G1 X134.228 Y43.786 E5.58252
G1 X134.464 Y43.281 E5.61033
G1 X134.608 Y42.742 E5.63817
G1 X134.657 Y42.186 E5.66601
G1 X134.608 Y41.63 E5.69386
G1 X134.464 Y41.091 E5.72169
G1 X134.228 Y40.586 E5.7495
G1 X133.908 Y40.129 E5.77734
G1 X133.513 Y39.734 E5.80521
G1 X133.056 Y39.414 E5.83304
G1 X132.551 Y39.178 E5.86085
G1 X132.011 Y39.034 E5.88873
G1 X131.456 Y38.985 E5.91653
G1 X130.9 Y39.034 E5.94438
G1 X130.36 Y39.178 E5.97226
G1 X129.856 Y39.414 E6.00002
G1 X129.398 Y39.734 E6.0279
G1 X129.003 Y40.129 E6.05577
G1 X128.683 Y40.586 E6.0836
G1 X128.447 Y41.091 E6.11141
G1 X128.303 Y41.63 E6.13924
G1 X128.255 Y42.186 E6.16709
G1 X128.303 Y42.742 E6.19493
G1 X128.447 Y43.281 E6.22276
G1 X128.683 Y43.786 E6.25057
G1 X129.003 Y44.244 E6.27845
G1 X129.398 Y44.638 E6.30628
G1 X129.856 Y44.958 E6.33416
G1 X130.36 Y45.194 E6.36192
G1 X130.9 Y45.339 E6.38982
G0 F6000 X130.824 Y45.772
G1 F1500 E-0.11018
G0 F6000 X132.115 Y45.923
G0 X131.861 Y44.484
G0 X172.513 Y67.291
G0 X171.141 Y67.791
G0 X172.236 Y68.873
G0 X173.474 Y69.877
;TYPE:WALL-INNER
G1 F1500 E6.38982
G1 F1200 X174.08 Y70.039 E6.42111
G1 X174.706 Y70.095 E6.45247
G1 X175.332 Y70.039 E6.48382
G1 X175.938 Y69.877 E6.51512
G1 X176.507 Y69.612 E6.54643
G1 X177.021 Y69.252 E6.57774
G1 X177.466 Y68.807 E6.60914
G1 X177.826 Y68.293 E6.64045
G1 X178.091 Y67.724 E6.67176
G1 X178.253 Y67.118 E6.70306
G1 X178.309 Y66.492 E6.73441
G1 X178.253 Y65.866 E6.76577
G1 X178.091 Y65.26 E6.79706
G1 X177.826 Y64.691 E6.82838
G1 X177.466 Y64.177 E6.85969
G1 X177.021 Y63.732 E6.89108
G1 X176.507 Y63.372 E6.92239
G1 X175.938 Y63.107 E6.95371
G1 X175.332 Y62.945 E6.985
G1 X174.706 Y62.889 E7.01636
G1 X174.08 Y62.945 E7.04771
G1 X173.474 Y63.107 E7.07901
G1 X172.905 Y63.372 E7.11032
G1 X172.39 Y63.732 E7.14167
G1 X171.945 Y64.177 E7.17307
G1 X171.586 Y64.691 E7.20435
G1 X171.321 Y65.259 E7.23562
G1 X171.158 Y65.866 E7.26697
G1 X171.104 Y66.492 E7.29832
G1 X171.158 Y67.118 E7.32967
G1 X171.321 Y67.725 E7.36103
G1 X171.586 Y68.293 E7.3923
G1 X171.945 Y68.807 E7.42357
G1 X172.39 Y69.252 E7.45497
G1 X172.905 Y69.612 E7.48632
G1 X173.474 Y69.877 E7.51764
G0 F6000 X173.611 Y69.5
;TYPE:WALL-OUTER
G1 F1200 X174.15 Y69.644 E7.54547
G1 X174.706 Y69.693 E7.57332
G1 X175.262 Y69.644 E7.60116
G1 X175.801 Y69.5 E7.629
G1 X176.306 Y69.264 E7.65681
G1 X176.763 Y68.944 E7.68464
G1 X177.158 Y68.549 E7.71251
G1 X177.478 Y68.092 E7.74034
G1 X177.714 Y67.587 E7.76815
G1 X177.858 Y67.048 E7.79599
G1 X177.907 Y66.492 E7.82383
G1 X177.858 Y65.936 E7.85168
G1 X177.714 Y65.397 E7.87951
G1 X177.478 Y64.892 E7.90732
G1 X177.158 Y64.435 E7.93516
G1 X176.763 Y64.04 E7.96303
G1 X176.306 Y63.72 E7.99086
G1 X175.801 Y63.484 E8.01867
G1 X175.262 Y63.34 E8.0465
G1 X174.706 Y63.291 E8.07435
G1 X174.15 Y63.34 E8.1022
G1 X173.611 Y63.484 E8.13003
G1 X173.106 Y63.72 E8.15784
G1 X172.648 Y64.04 E8.18572
G1 X172.253 Y64.435 E8.21358
G1 X171.934 Y64.892 E8.24139
G1 X171.698 Y65.397 E8.2692
G1 X171.553 Y65.936 E8.29705
G1 X171.505 Y66.492 E8.32489
G1 X171.553 Y67.048 E8.35273
G1 X171.698 Y67.587 E8.38058
G1 X171.934 Y68.092 E8.40839
G1 X172.253 Y68.549 E8.43619
G1 X172.648 Y68.944 E8.46406
G1 X173.106 Y69.264 E8.49194
G1 X173.611 Y69.5 E8.51975
G0 F6000 X173.461 Y69.913
G1 F1500 E2.01975
G0 F6000 X174.046 Y70.228
G0 X174.298 Y68.789
G0 X173.778 Y79.41
G0 X175.034 Y78.638
G0 X176.353 Y80.911
G0 X182.246 Y93.777
G0 X185.415 Y107.03
G0 X186.197 Y113.434
G0 X187.147 Y121.097
G0 X187.479 Y122.258
;TYPE:WALL-INNER
G1 F1500 E8.51975
G1 F1200 X189.069 Y122.186 E8.59915
G1 X189.279 Y122.177 E8.60964
G1 X189.258 Y121.968 E8.61631
G1 X186.21 Y92.69 E10.08489
G1 X185.956 Y90.258 E10.20689
G1 X185.68 Y87.612 E10.33961
G1 X185.645 Y87.281 E10.35622
G1 X185.385 Y84.927 E10.47437
G1 X185.374 Y84.834 E10.47905
G1 X185.069 Y82.201 E10.61129
G1 X185.059 Y82.117 E10.61551
G1 X184.728 Y79.446 E10.74978
G1 X184.718 Y79.37 E10.75361
G1 X184.442 Y77.318 E10.8569
G1 X184.344 Y76.599 E10.89311
G1 X184.178 Y75.438 E10.95162
G1 X184.139 Y75.179 E10.96468
G1 X183.81 Y73.035 E11.0729
G1 X183.749 Y72.644 E11.09264
G1 X183.445 Y70.882 E11.18185
G1 X183.188 Y69.396 E11.25709
G1 X183.057 Y68.725 E11.29119
G1 X182.635 Y66.579 E11.40031
G1 X182.153 Y64.427 E11.51033
G1 X182.007 Y63.777 E11.54357
G1 X181.636 Y62.294 E11.61984
G1 X181.499 Y61.747 E11.64797
G1 X181.295 Y60.993 E11.68694
G1 X180.975 Y59.868 E11.74529
G1 X180.723 Y58.986 E11.79106
G1 X180.292 Y57.597 E11.86361
G1 X180.242 Y57.446 E11.87155
G1 X179.834 Y56.221 E11.93597
G1 X179.424 Y55.067 E11.99706
G1 X179.349 Y54.857 E12.00819
G1 X179.112 Y54.225 E12.04186
G1 X178.99 Y53.91 E12.05872
G1 X178.833 Y53.506 E12.08034
G1 X178.583 Y52.878 E12.11406
G1 X178.523 Y52.736 E12.12175
G1 X178.041 Y51.59 E12.18378
G1 X178.024 Y51.549 E12.18599
G1 X177.525 Y50.447 E12.24635
G1 X177.428 Y50.234 E12.25802
G1 X176.986 Y49.317 E12.30881
G1 X176.802 Y48.938 E12.32983
G1 X176.422 Y48.204 E12.37107
G1 X176.185 Y47.746 E12.39679
G1 X175.833 Y47.105 E12.43328
G1 X175.54 Y46.571 E12.46367
G1 X175.225 Y46.026 E12.49507
G1 X174.861 Y45.41 E12.53077
G1 X174.584 Y44.956 E12.5573
G1 X174.534 Y44.875 E12.56205
G1 X174.153 Y44.269 E12.59776
G1 X173.909 Y43.893 E12.62012
G1 X173.81 Y43.741 E12.62917
G1 X173.48 Y43.245 E12.6589
G1 X173.124 Y42.727 E12.69025
G1 X173.087 Y42.674 E12.69348
G1 X172.781 Y42.238 E12.72005
G1 X172.411 Y41.728 E12.75149
G1 X172.228 Y41.48 E12.76686
G1 X172.055 Y41.246 E12.78138
G1 X171.336 Y40.315 E12.84007
G1 X171.301 Y40.27 E12.84291
G1 X170.521 Y39.311 E12.90459
G1 X170.392 Y39.161 E12.91446
G1 X169.712 Y38.371 E12.96646
G1 X169.287 Y37.902 E12.99804
G1 X168.876 Y37.448 E13.02859
G1 X168.118 Y36.652 E13.08343
G1 X168.012 Y36.541 E13.09108
G1 X167.118 Y35.653 E13.15395
G1 X166.904 Y35.451 E13.16863
G1 X166.197 Y34.783 E13.21716
G1 X165.639 Y34.282 E13.25457
G1 X165.248 Y33.931 E13.28078
G1 X164.335 Y33.152 E13.34066
G1 X164.272 Y33.098 E13.3448
G1 X163.711 Y32.644 E13.38081
G1 X162.959 Y32.044 E13.4288
G1 X162.927 Y32.018 E13.43086
G1 X162.346 Y31.575 E13.46731
G1 X161.557 Y30.993 E13.51622
G1 X161.53 Y30.973 E13.5179
G1 X160.93 Y30.541 E13.55479
G1 X160.072 Y29.958 E13.60654
G1 X159.467 Y29.547 E13.64303
G1 X158.835 Y29.142 E13.68048
G1 X158.563 Y28.972 E13.69648
G1 X157.953 Y28.589 E13.73241
G1 X157.307 Y28.196 E13.77014
G1 X156.994 Y28.013 E13.78823
G1 X156.794 Y27.895 E13.79981
G1 X155.614 Y27.224 E13.86754
G1 X155.392 Y27.105 E13.8801
G1 X154.405 Y26.573 E13.93604
G1 X153.722 Y26.223 E13.97433
G1 X153.172 Y25.941 E14.00517
G1 X152.017 Y25.382 E14.06918
G1 X151.823 Y25.288 E14.07994
G1 X151.168 Y24.986 E14.11592
G1 X150.445 Y24.659 E14.15551
G1 X150.267 Y24.581 E14.16521
G1 X149.777 Y24.367 E14.19188
G1 X149.038 Y24.054 E14.23192
G1 X148.471 Y23.82 E14.26252
G1 X148.359 Y23.773 E14.26858
G1 X147.606 Y23.473 E14.30902
G1 X146.913 Y23.203 E14.34613
G1 X146.648 Y23.105 E14.36022
G1 X145.443 Y22.659 E14.42433
G1 X144.735 Y22.412 E14.46174
G1 X143.946 Y22.137 E14.50342
G1 X142.795 Y21.763 E14.5638
G1 X142.421 Y21.641 E14.58343
G1 X140.803 Y21.152 E14.66776
G1 X140.736 Y21.131 E14.67126
G1 X139.021 Y20.649 E14.76014
G1 X138.782 Y20.587 E14.77246
G1 X138.222 Y20.44 E14.80134
G1 X137.277 Y20.199 E14.85
G1 X136.706 Y20.06 E14.87932
G1 X136.467 Y20.001 E14.8916
G1 X135.505 Y19.778 E14.94086
G1 X134.683 Y19.594 E14.98289
G1 X134.612 Y19.58 E14.9865
G1 X132.873 Y19.216 E15.07514
G1 X132.464 Y19.139 E15.0959
G1 X131.034 Y18.868 E15.16852
G1 X130.29 Y18.742 E15.20616
G1 X129.171 Y18.551 E15.2628
G1 X128.305 Y18.417 E15.30652
G1 X128.07 Y18.382 E15.31837
G1 X127.281 Y18.264 E15.35817
G1 X126.404 Y18.144 E15.40233
G1 X125.82 Y18.068 E15.43171
G1 X125.365 Y18.008 E15.45461
G1 X124.477 Y17.9 E15.49924
G1 X123.538 Y17.795 E15.54638
G1 X123.424 Y17.782 E15.5521
G1 X122.525 Y17.688 E15.5972
G1 X121.219 Y17.568 E15.66263
G1 X120.549 Y17.506 E15.6962
G1 X118.862 Y17.378 E15.7806
G1 X118.547 Y17.354 E15.79637
G1 X116.521 Y17.235 E15.89762
G1 X116.481 Y17.234 E15.89961
G1 X114.472 Y17.145 E15.99994
G1 X114.056 Y17.134 E16.0207
G1 X111.996 Y17.078 E16.12352
G1 X111.605 Y17.075 E16.14302
G1 X109.487 Y17.057 E16.24869
G1 X107.369 Y17.075 E16.35437
G1 X106.979 Y17.079 E16.37382
G1 X105.853 Y17.105 E16.43001
G1 X104.92 Y17.133 E16.47658
G1 X104.501 Y17.146 E16.4975
G1 X103.39 Y17.19 E16.55297
G1 X102.493 Y17.232 E16.59777
G1 X102.451 Y17.235 E16.59987
G1 X100.427 Y17.354 E16.70102
G1 X100.112 Y17.377 E16.71678
G1 X98.425 Y17.506 E16.80119
G1 X97.756 Y17.567 E16.8347
G1 X96.448 Y17.687 E16.90024
G1 X95.55 Y17.781 E16.94528
G1 X95.436 Y17.793 E16.951
G1 X94.496 Y17.9 E16.9982
G1 X93.608 Y18.008 E17.04283
G1 X93.155 Y18.068 E17.06563
G1 X91.692 Y18.263 E17.13926
G1 X90.905 Y18.383 E17.17898
G1 X89.803 Y18.551 E17.23459
